!!!OTL: ES WOLLT EIN HIRTLEIN TRIEBEN AUS
!!!ARE: Europa, Mitteleuropa, Deutschland, Schlesien
!!!SCT: E0212A
!!!YEM: Copyright 1995, estate of Helmut Schaffrath.
**kern
*ICvox
*Ivox
*M2/4
*k[b-e-]
*B-:
{8f
=1
8.b-
16a
8b-
8cc
=2
8.dd
16cc
8b-}
{8cc
=3
8.dd
16cc
8dd
8ee-
=4
4ff
4dd
=5
4cc
8r}
{8ff
=6
8ee-
8dd
8cc
8b-
=7
4dd
4cc
=8
8.b-
16cc
8dd}
{8ff
=9
8ee-
8dd
8cc
8b-
=10
4dd
4cc
=11
4b-
8r}
==
!!!AGN: erzaehlendes Volks - Lied, Mahn -, Moral - Lied, Strafe; Rabenmutter
!!!ONB: ESAC (Essen Associative Code) Database: ERK1
!!!AMT: simple duple
!!!AIN: vox
!!!EED: Helmut Schaffrath
!!!EEV: 1.0
*-
